assets/img/braze_icons/code-01.svg

<svg fill="none" height="24" viewBox="0 0 24 24" width="24" xmlns="http://www.w3.org/2000/svg"><g clip-rule="evenodd" fill="#801ed7" fill-rule="evenodd"><path d="m15.2929 5.29289c.3905-.39052 1.0237-.39052 1.4142 0l6 6.00001c.3905.3905.3905 1.0237 0 1.4142l-6 6c-.3905.3905-1.0237.3905-1.4142 0s-.3905-1.0237 0-1.4142l5.2929-5.2929-5.2929-5.29289c-.3905-.39053-.3905-1.02369 0-1.41422z"/><path d="m8.70711 5.29289c.39052.39053.39052 1.02369 0 1.41422l-5.2929 5.29289 5.2929 5.2929c.39052.3905.39052 1.0237 0 1.4142-.39053.3905-1.02369.3905-1.41422 0l-6-6c-.390521-.3905-.390521-1.0237 0-1.4142l6-6.00001c.39053-.39052 1.02369-.39052 1.41422 0z"/></g></svg>

<svg width="24" height="24" viewBox="0 0 24 24" fill="none" xmlns="http://www.w3.org/2000/svg">
<path fill-rule="evenodd" clip-rule="evenodd" d="M15.2929 5.29289C15.6834 4.90237 16.3166 4.90237 16.7071 5.29289L22.7071 11.2929C23.0976 11.6834 23.0976 12.3166 22.7071 12.7071L16.7071 18.7071C16.3166 19.0976 15.6834 19.0976 15.2929 18.7071C14.9024 18.3166 14.9024 17.6834 15.2929 17.2929L20.5858 12L15.2929 6.70711C14.9024 6.31658 14.9024 5.68342 15.2929 5.29289Z" fill="#801ED7"/>
<path fill-rule="evenodd" clip-rule="evenodd" d="M8.70711 5.29289C9.09763 5.68342 9.09763 6.31658 8.70711 6.70711L3.41421 12L8.70711 17.2929C9.09763 17.6834 9.09763 18.3166 8.70711 18.7071C8.31658 19.0976 7.68342 19.0976 7.29289 18.7071L1.29289 12.7071C0.902369 12.3166 0.902369 11.6834 1.29289 11.2929L7.29289 5.29289C7.68342 4.90237 8.31658 4.90237 8.70711 5.29289Z" fill="#801ED7"/>
</svg>
